icon/ir/fingerprint-squared.svg

<svg stroke-width="1.5" viewBox="0 0 24 24" fill="none" xmlns="http://www.w3.org/2000/svg" height="1em" width="1em">
  <path d="M7 16V11.3615C7 10.8518 7.10026 10.3624 7.28451 9.90769M17 16V12.8154M9.22222 7.73446C10.0167 7.27055 10.9721 7 12 7C14.2795 7 16.2027 8.33062 16.8046 10.15" stroke="currentColor" stroke-linecap="round" stroke-linejoin="round"/>
  <path d="M10 17V14.8235M14 17V11.8529C14 10.8296 13.1046 10 12 10C10.8954 10 10 10.8296 10 11.8529V12.6471" stroke="currentColor" stroke-linecap="round" stroke-linejoin="round"/>
  <path d="M21 3.6V20.4C21 20.7314 20.7314 21 20.4 21H3.6C3.26863 21 3 20.7314 3 20.4V3.6C3 3.26863 3.26863 3 3.6 3H20.4C20.7314 3 21 3.26863 21 3.6Z" stroke="currentColor" stroke-linecap="round" stroke-linejoin="round"/>
</svg>

<svg width="24" height="24" stroke-width="1.5" fill="none" xmlns="http://www.w3.org/2000/svg"><path d="M7 16v-4.639c0-.51.1-.999.285-1.453M17 16v-3.185m-7.778-5.08A5.506 5.506 0 0 1 12 7c2.28 0 4.203 1.33 4.805 3.15M10 17v-2.177M14 17v-5.147C14 10.83 13.105 10 12 10s-2 .83-2 1.853v.794" stroke="currentColor" stroke-linecap="round" stroke-linejoin="round"/><path d="M21 3.6v16.8a.6.6 0 0 1-.6.6H3.6a.6.6 0 0 1-.6-.6V3.6a.6.6 0 0 1 .6-.6h16.8a.6.6 0 0 1 .6.6Z" stroke="currentColor" stroke-linecap="round" stroke-linejoin="round"/></svg>
